X:1
T:12 New Songs by some of the best and best-known British composers
T:Love's Journey
T:To H.R.H. The Princess Louise (Marchioness of Lorne) 
T:12 New Songs
T:Frederick Corder
T:3. Love’s Journey
T:Harold Boulton 
T:Creative Commons copyright waiver (CC0 1.0 Universal)
T:Creative Commons copyright waiver (CC0 1.0 Universal)
T:Creative Commons copyright waiver (CC0 1.0 Universal)
T:Creative Commons copyright waiver (CC0 1.0 Universal)
T:Creative Commons copyright waiver (CC0 1.0 Universal)
T:Creative Commons copyright waiver (CC0 1.0 Universal)
T:Creative Commons copyright waiver (CC0 1.0 Universal)
T:Creative Commons copyright waiver (CC0 1.0 Universal)
T:Creative Commons copyright waiver (CC0 1.0 Universal)
T:Creative Commons copyright waiver (CC0 1.0 Universal)
C:Frederick Corder
Z:Harold Boulton (also series editor)
Z:Creative Commons copyright waiver (CC0 1.0 Universal)
%%score 1 { ( 2 3 ) | 4 }
L:1/8
Q:1/4=116
M:3/4
K:Ab
V:1 treble nm="Voice"
V:2 treble nm="Piano"
V:3 treble 
V:4 bass 
V:1
"^Con moto" z6 | z6 | z6 | z6 | z6 | z6 | z6 |"^piano e sostenuto" z2 c2 d2 | e4 f2 | z6 | z6 | %11
w: |||||||Moon- beam|pur- est|||
 z6 | z6 | z6 | z6 | z6 | z6 | z6 | (=A3 Bc) =d | e6 | z2 e2 _c2 | e4 _c2 | (B3 _c) de | %23
w: |||||||far _ _ a-|way|With thy|lus- trous|sil- * ver *|
!<(! _f6!<)! | z6 | z6 | z6 | z6 | z6 | z2 G2 f2 | (e2 g2) f2 | (c2{e} d2) B2 | A6 | z6 | z6 | z6 | %36
w: ray,||||||tell her|swift * as|thee _ I|come.||||
 z6 | z2!p! c2 d2 | e4 z2 | z6 | z6 | z6 | z6 |!f! g4 f2 | f4 e2 | z6 | z6 | z6 | z6 | z6 | z6 | %51
w: |Dawn- ing|sun,|||||clouds a-|sun- der,|||||||
 z6 | (B3 _c) de |!<(! f6!<)! | =f3 e d c | B A (c2 B2) | z6 | z6 | z6 | z6 | z6 | z6 | z6 | z6 | %64
w: |dwel- * ling *|now;|Tell her, glo- rious|mes- sen- ger, _|||||||||
 z6 | z6 | A4 B2 | d3 c B c | A2 __B2 z2 | z6 | z6 | z6 | z6 | z6 | z6 | z6 ||[K:G]!p! d B d3 B | %77
w: ||Night’s long|jour- ney- ings are|o- ver,||||||||Here I wait at|
 (3c B A A4 | B G B2 G2 | (3AG F G4 | z6 | z6 | z6 | z6 | z6 | z6 | z6 | z6 | z6 | z6 || %90
w: ear- li- est dawn,|’Mid the ro- ses|on * thy lawn,|||||||||||
[K:Ab][Q:1/4=116]"^Tempo I""^con fuoco"!f! f3 e d c | B !breath!A (c2 B2) | z6 | z6 | z6 | z6 | %96
w: O- pen wide thy|win- dow, Sweet, _|||||
 z6 | z6 | z6 | z6 | z6 | z2"^dim." F2 A2 | (c2 e2) d2 | c6 | B6 | A6 | z6 | z6 | z6 | z6 | z6 | %111
w: |||||I am|kneel- * ing|at|thy|feet.||||||
 z6 | z6 | z6 | z6 | z6 | z6 |] %117
w: ||||||
V:2
!p!"_L.H." z/ [Ae]/f/[Ae]/ z/ [Ae]/f/[Ae]/ z/ [Ae]/f/[Ae]/ | %1
 z/ [Ae]/f/[Ae]/ z/ [Ae]/f/[Ae]/ z/ [Ae]/f/[Ae]/ | z6 | z6 | z6 | z6 | z6 | z6 | z6 | z6 | z6 | %11
 z6 | z6 | z6 | z6 | z6 | z6 | z6 | z6 | z6 | z6 | z6 | z6 | z6 | z6 | z6 | z6 | z6 | z6 | z6 | %30
 z6 | z6 | z6 | z6 | z6 | z6 | z6 | z6 | z6 | z6 | z6 | z6 | z6 | z6 | z6 | z6 | z6 | z6 | z6 | %49
 z6 | z6 | z6 | z6 | z6 | z6 | z6 | z6 | z6 | z6 | z6 | z6 | z6 | z6 | z6 | z6 | %65
 (3C AA (3AAA (3AAA | z6 | z6 | z6 | z6 | z6 | z6 | z6 | z6 | z6 | z6 ||[K:G] z6 | z6 | z6 | z6 | %80
 z6 | z6 | z6 | z6 | z6 | z6 | z6 | z6 | z6 | (3(e'd'^c' e'4) || %90
[K:Ab]"^NOTE: the + signs are obsolete English fingering notation for the thumb (in modern notation, thumb = 1)" z/ !1![FGBf][FGBf][FGBf][EBe][DGd][CGc]/- | %91
 [CGc]/ z/ z z2 z2 | z6 | z6 | z6 | z6 | z6 | z6 | z6 | z6 | z6 | z6 | z6 | z6 | z6 | z6 | z6 | %107
 z6 | z6 | z6 | z6 | z6 | z6 | z6 | z6 | z6 | z6 |] %117
V:3
 .c.F .c.F .c.F | ._c.F .c.F .c.F | x6 | x6 | x6 | x6 | x6 | x6 | x6 | x6 | x6 | x6 | x6 | x6 | %14
 x6 | x6 | x6 | x6 | x6 | x6 | x6 | x6 | x6 | x6 | x6 | x6 | x6 | x6 | x6 | x6 | x6 | x6 | x6 | %33
 x6 | x6 | x6 | x6 | x6 | x6 | x6 | x6 | x6 | x6 | x6 | x6 | x6 | x6 | x6 | x6 | x6 | x6 | x6 | %52
 x6 | x6 | x6 | x6 | x6 | x6 | x6 | x6 | x6 | x6 | x6 | x6 | x6 | x6 | x6 | x6 | x6 | x6 | x6 | %71
 x6 | x6 | x6 | x6 | x6 ||[K:G] x6 | x6 | x6 | x6 | x6 | x6 | x6 | x6 | x6 | x6 | x6 | x6 | x6 | %89
 [g_b]6 ||[K:Ab] x6 | x6 | x6 | x6 | x6 | x6 | x6 | x6 | x6 | x6 | x6 | x6 | x6 | x6 | x6 | x6 | %106
 x6 | x6 | x6 | x6 | x6 | x6 | x6 | x6 | x6 | x6 | x6 |] %117
V:4
 z6 | z6 | z6 | z6 | z6 | z6 | z6 | z6 | z6 | z6 | z6 | z6 | z6 | z6 | z6 | z6 | z6 | z6 | z6 | %19
 z6 | z6 | z6 | z6 | z6 | z6 | z6 | z6 | z6 | z6 | z6 | z6 | z6 | z6 | z6 | z6 | z6 | z6 | z6 | %38
 z6 | z6 | z6 | z6 | z6 | z6 | z6 | z6 | z6 | z6 | z6 | z6 | z6 | z6 | z6 | z6 | z6 | z6 | z6 | %57
 z6 | z6 | z6 | z6 | z6 | z6 | z6 | z6 | (3[A,,E,A,] z z (3:2:2z2 z (3:2:2z2 z | z6 | z6 | z6 | %69
 z6 | z6 | z6 | z6 | z6 | z6 | z6 ||[K:G] z6 | z6 | z6 | z6 | z6 | z6 | z6 | z6 | z6 | z6 | z6 | %87
 z6 | [^C,,^C,]4 [G,_B,E]2- |"^rall." ([G,B,E]4[I:staff -1] [G_Be]2) ||[K:Ab][I:staff +1] z6 | z6 | %92
 z6 | z6 | z6 | z6 | z6 | z6 | z6 | z6 | z6 | z6 | z6 | z6 | z6 | z6 | z6 | z6 | z6 | z6 | z6 | %111
 z6 | z6 | z6 | z6 | z6 | z6 |] %117

